src/assets/icons/img_alarm_rejected.svg

<svg width="32" height="32" viewBox="0 0 32 32" fill="none" xmlns="http://www.w3.org/2000/svg">
<rect width="32" height="32" fill="#757984"/>
<g clip-path="url(#clip0_885_2695)">
<path d="M26 16C26 21.5228 21.5228 26 16 26C10.4778 26 6 21.5228 6 16C6 10.4778 10.4778 6 16 6C21.5228 6 26 10.4778 26 16Z" fill="#FFCC4D"/>
<path d="M12.3889 17.3889C13.156 17.3889 13.7778 16.5183 13.7778 15.4444C13.7778 14.3706 13.156 13.5 12.3889 13.5C11.6218 13.5 11 14.3706 11 15.4444C11 16.5183 11.6218 17.3889 12.3889 17.3889Z" fill="#664500"/>
<path d="M19.6115 17.3889C20.3786 17.3889 21.0004 16.5183 21.0004 15.4444C21.0004 14.3706 20.3786 13.5 19.6115 13.5C18.8445 13.5 18.2227 14.3706 18.2227 15.4444C18.2227 16.5183 18.8445 17.3889 19.6115 17.3889Z" fill="#664500"/>
<path d="M9.33232 13.5C9.21676 13.5 9.09954 13.4638 8.99954 13.3888C8.75398 13.205 8.70454 12.8566 8.88843 12.6111C10.7006 10.1944 13.1195 10.1666 13.2218 10.1666C13.5284 10.1666 13.7773 10.4155 13.7773 10.7222C13.7773 11.0283 13.5301 11.2766 13.224 11.2777C13.1379 11.2788 11.2418 11.3255 9.77732 13.2777C9.66843 13.4233 9.50121 13.5 9.33232 13.5ZM22.6668 13.5C22.4973 13.5 22.3312 13.4233 22.2218 13.2777C20.7545 11.3216 18.8545 11.2783 18.774 11.2777C18.4684 11.2744 18.2218 11.0244 18.2234 10.7194C18.2251 10.4133 18.4718 10.1666 18.7773 10.1666C18.8795 10.1666 21.2979 10.1944 23.1107 12.6111C23.2951 12.8566 23.2451 13.205 22.9995 13.3888C22.8995 13.4638 22.7829 13.5 22.6668 13.5ZM19.0468 21.7661C19.0407 21.7416 18.4107 19.3333 15.9995 19.3333C13.5884 19.3333 12.9584 21.7416 12.9523 21.7661C12.9229 21.8844 12.9768 22.0055 13.0812 22.0683C13.1856 22.1305 13.3218 22.1161 13.4123 22.035C13.4173 22.0305 13.9751 21.5555 15.9995 21.5555C17.994 21.5555 18.5645 22.0166 18.5862 22.035C18.639 22.085 18.7079 22.1111 18.7773 22.1111C18.824 22.1111 18.8712 22.0994 18.914 22.0755C19.0229 22.0133 19.0773 21.8872 19.0468 21.7661Z" fill="#664500"/>
<path d="M14.8886 23.2223C14.8886 24.7567 13.6452 26.0001 12.1108 26.0001C10.5763 26.0001 9.33301 24.7567 9.33301 23.2223C9.33301 21.6879 11.5552 17.6667 12.1108 17.6667C12.6663 17.6667 14.8886 21.6879 14.8886 23.2223Z" fill="#5DADEC"/>
</g>
<defs>
<clipPath id="clip0_885_2695">
<rect width="20" height="20" fill="white" transform="translate(6 6)"/>
</clipPath>
</defs>
</svg>

<svg width="32" height="32" fill="none" xmlns="http://www.w3.org/2000/svg"><path fill="#757984" d="M0 0h32v32H0z"/><g clip-path="url(#prefix__clip0_885_2695)"><path d="M26 16c0 5.523-4.477 10-10 10-5.522 0-10-4.477-10-10 0-5.522 4.478-10 10-10 5.523 0 10 4.478 10 10z" fill="#FFCC4D"/><path d="M12.389 17.389c.767 0 1.389-.87 1.389-1.945 0-1.073-.622-1.944-1.39-1.944-.766 0-1.388.87-1.388 1.944 0 1.074.622 1.945 1.389 1.945zM19.611 17.389c.768 0 1.39-.87 1.39-1.945 0-1.073-.622-1.944-1.39-1.944-.767 0-1.388.87-1.388 1.944 0 1.074.622 1.945 1.389 1.945zM9.332 13.5a.556.556 0 01-.444-.889c1.813-2.417 4.232-2.444 4.334-2.444a.556.556 0 01.002 1.11c-.086.002-1.982.049-3.447 2a.554.554 0 01-.445.223zm13.335 0a.554.554 0 01-.445-.222c-1.468-1.956-3.367-2-3.448-2a.557.557 0 01.003-1.111c.102 0 2.52.027 4.334 2.444a.555.555 0 01-.444.889zm-3.62 8.266c-.006-.024-.636-2.433-3.048-2.433-2.41 0-3.04 2.409-3.047 2.433-.03.118.025.24.13.302.104.063.24.048.33-.033.005-.005.563-.48 2.587-.48 1.995 0 2.565.462 2.587.48a.278.278 0 00.46-.269z" fill="#664500"/><path d="M14.889 23.222a2.777 2.777 0 11-5.556 0c0-1.534 2.222-5.555 2.778-5.555.555 0 2.778 4.02 2.778 5.555z" fill="#5DADEC"/></g><defs><clipPath id="prefix__clip0_885_2695"><path fill="#fff" transform="translate(6 6)" d="M0 0h20v20H0z"/></clipPath></defs></svg>
